; generated by PrusaSlicer 2.3.0+win64 on 2021-04-21 at 17:37:28 UTC

; 

; external perimeters extrusion width = 0.45mm
; perimeters extrusion width = 0.45mm
; infill extrusion width = 0.45mm
; solid infill extrusion width = 0.45mm
; top infill extrusion width = 0.40mm
; first layer extrusion width = 0.42mm

M73 P0 R130
M73 Q0 S130
M201 X1000 Y1000 Z200 E5000 ; sets maximum accelerations, mm/sec^2
M203 X200 Y200 Z12 E120 ; sets maximum feedrates, mm/sec
M204 P1250 R1250 T1250 ; sets acceleration (P, T) and retract acceleration (R), mm/sec^2
M205 X8.00 Y8.00 Z0.40 E4.50 ; sets the jerk limits, mm/sec
M205 S0 T0 ; sets the minimum extruding and travel feed rate, mm/sec
M107
;TYPE:Custom
M862.3 P "MK3S" ; printer model check
M862.1 P0.4 ; nozzle diameter check
M115 U3.9.3 ; tell printer latest fw version
G90 ; use absolute coordinates
M83 ; extruder relative mode
M104 S230 ; set extruder temp
M140 S85 ; set bed temp
M190 S85 ; wait for bed temp
M109 S230 ; wait for extruder temp
G28 W ; home all without mesh bed level
G80 ; mesh bed leveling
G1 Y-3.0 F1000.0 ; go outside print area
G92 E0.0
G1 X60.0 E9.0 F1000.0 ; intro line
G1 X100.0 E12.5 F1000.0 ; intro line
G92 E0.0
M221 S95

; Don't change E values below. Excessive value can damage the printer.
M907 E430 ; set extruder motor current
G21 ; set units to millimeters
G90 ; use absolute coordinates
M83 ; use relative distances for extrusion
M900 K0.08 ; Filament gcode LA 1.5
M900 K45 ; Filament gcode LA 1.0
;LAYER_CHANGE
;Z:0.2
;HEIGHT:0.2
;BEFORE_LAYER_CHANGE
G92 E0.0
;0.2


G1 E-1.40000 F2100.000
G1 Z0.200 F10800.000
;AFTER_LAYER_CHANGE
;0.2
G1 Z0.400
G1 X39.677 Y52.524
G1 Z0.200
G1 E1.40000 F2100.000
M204 S1000
;TYPE:Skirt
;WIDTH:0.42
G1 F1200.000
G1 X42.396 Y50.609 E0.10427
G1 X45.057 Y48.925 E0.09874
G1 X47.849 Y47.343 E0.10061
G1 X50.715 Y45.900 E0.10061
G1 X53.596 Y44.622 E0.09882
G1 X56.696 Y43.426 E0.10419
G1 X59.693 Y42.437 E0.09894
G1 X62.782 Y41.582 E0.10049
G1 X65.913 Y40.879 E0.10062
G1 X69.018 Y40.340 E0.09882
G1 X72.318 Y39.933 E0.10427
G1 X75.459 Y39.702 E0.09875
G1 X78.671 Y39.623 E0.10073
G1 X81.875 Y39.702 E0.10049
G1 X85.075 Y39.938 E0.10061
G1 X197.509 Y51.338 E3.54335
G1 X199.781 Y51.730 E0.07227
G1 X201.922 Y52.210 E0.06881
G1 X204.202 Y52.841 E0.07419
G1 X206.289 Y53.531 E0.06893
G1 X208.387 Y54.340 E0.07048
G1 X210.445 Y55.253 E0.07061
G1 X212.426 Y56.249 E0.06952
G1 X214.416 Y57.375 E0.07168
G1 X216.319 Y58.580 E0.07060
G1 X218.160 Y59.876 E0.07060
G1 X219.935 Y61.261 E0.07060
G1 X221.640 Y62.732 E0.07061
G1 X223.271 Y64.285 E0.07061
G1 X224.823 Y65.915 E0.07060
G1 X226.294 Y67.621 E0.07060
G1 X227.680 Y69.396 E0.07060
G1 X228.976 Y71.237 E0.07060
G1 X230.181 Y73.139 E0.07060
G1 X231.291 Y75.098 E0.07060
G1 X232.303 Y77.110 E0.07061
G1 X233.216 Y79.168 E0.07060
G1 X234.026 Y81.269 E0.07060
G1 X234.733 Y83.407 E0.07060
G1 X235.333 Y85.577 E0.07060
G1 X235.827 Y87.774 E0.07060
G1 X236.212 Y89.993 E0.07060
G1 X236.488 Y92.228 E0.07060
G1 X236.653 Y94.473 E0.07060
G1 X236.709 Y96.724 E0.07060
G1 X236.653 Y98.975 E0.07060
G1 X236.488 Y101.221 E0.07060
G1 X236.212 Y103.456 E0.07060
G1 X235.827 Y105.675 E0.07060
G1 X235.334 Y107.872 E0.07060
G1 X234.734 Y110.042 E0.07061
G1 X234.027 Y112.180 E0.07060
G1 X233.217 Y114.281 E0.07060
G1 X232.304 Y116.339 E0.07061
G1 X231.308 Y118.320 E0.06952
G1 X230.182 Y120.310 E0.07168
G1 X228.978 Y122.213 E0.07060
G1 X227.681 Y124.054 E0.07060
G1 X226.332 Y125.784 E0.06881
G1 X224.784 Y127.578 E0.07426
G1 X223.270 Y129.167 E0.06886
G1 X221.597 Y130.757 E0.07235
G1 X219.934 Y132.191 E0.06886
G1 X218.158 Y133.576 E0.07060
G1 X216.320 Y134.870 E0.07048
G1 X214.415 Y136.077 E0.07072
G1 X212.459 Y137.185 E0.07048
G1 X210.447 Y138.197 E0.07061
G1 X208.389 Y139.110 E0.07060
G1 X206.303 Y139.915 E0.07013
G1 X204.150 Y140.627 E0.07108
G1 X201.987 Y141.226 E0.07036
G1 X94.534 Y168.423 E3.47538
G1 X91.424 Y169.121 E0.09992
G1 X88.262 Y169.669 E0.10061
G1 X85.078 Y170.062 E0.10061
G1 X81.931 Y170.295 E0.09894
G1 X78.670 Y170.377 E0.10228
G1 X75.519 Y170.300 E0.09882
G1 X72.202 Y170.056 E0.10427
G1 X69.073 Y169.669 E0.09886
G1 X65.911 Y169.120 E0.10061
G1 X62.784 Y168.418 E0.10049
G1 X59.692 Y167.562 E0.10061
G1 X56.645 Y166.556 E0.10061
G1 X53.651 Y165.401 E0.10062
G1 X50.717 Y164.101 E0.10061
G1 X47.881 Y162.674 E0.09954
G1 X45.059 Y161.076 E0.10168
G1 X42.396 Y159.391 E0.09882
G1 X39.679 Y157.478 E0.10419
G1 X37.192 Y155.536 E0.09894
G1 X34.765 Y153.442 E0.10049
G1 X32.441 Y151.229 E0.10061
G1 X30.267 Y148.947 E0.09882
G1 X28.095 Y146.429 E0.10427
G1 X26.156 Y143.943 E0.09886
G1 X24.310 Y141.322 E0.10050
G1 X22.593 Y138.612 E0.10061
G1 X21.039 Y135.870 E0.09882
G1 X19.544 Y132.899 E0.10427
G1 X18.267 Y130.016 E0.09886
G1 X17.113 Y127.026 E0.10049
G1 X16.107 Y123.979 E0.10062
G1 X15.265 Y120.942 E0.09881
G1 X14.537 Y117.697 E0.10427
G1 X13.999 Y114.590 E0.09886
G1 X13.606 Y111.405 E0.10061
G1 X13.370 Y108.209 E0.10049
G1 X13.291 Y105.001 E0.10061
G1 X13.370 Y101.793 E0.10061
G1 X13.601 Y98.650 E0.09882
G1 X14.008 Y95.352 E0.10419
G1 X14.548 Y92.243 E0.09894
G1 X15.250 Y89.116 E0.10049
G1 X16.106 Y86.023 E0.10061
G1 X17.094 Y83.030 E0.09882
G1 X18.291 Y79.928 E0.10427
G1 X19.568 Y77.049 E0.09874
G1 X21.012 Y74.179 E0.10073
G1 X22.592 Y71.391 E0.10049
G1 X24.309 Y68.679 E0.10061
G1 X26.156 Y66.056 E0.10061
G1 X28.095 Y63.571 E0.09882
G1 X30.267 Y61.053 E0.10427
G1 X32.442 Y58.770 E0.09886
G1 X34.763 Y56.560 E0.10049
G1 X37.193 Y54.464 E0.10061
G1 X39.630 Y52.561 E0.09694
; printing object turntable_parts_tray_partB_nohole.stl id:1 copy 0
;WIPE_START
G1 F8640.000
G1 X42.396 Y50.609 E-0.78171
G1 X44.402 Y49.339 E-0.54829
;WIPE_END
G1 E-0.07000 F2100.000
G1 Z0.400 F10800.000
G1 X149.958 Y84.327
G1 Z0.200
G1 E1.40000 F2100.000
;TYPE:Perimeter
G1 F1200.000
G1 X150.616 Y82.336 E0.06573
G1 X151.370 Y80.380 E0.06573
G1 X152.220 Y78.464 E0.06573
G1 X153.162 Y76.591 E0.06573
G1 X154.196 Y74.767 E0.06573
G1 X155.317 Y72.996 E0.06573
G1 X156.524 Y71.282 E0.06573
G1 X157.814 Y69.629 E0.06573
G1 X159.183 Y68.042 E0.06573
G1 X160.629 Y66.523 E0.06573
G1 X162.147 Y65.078 E0.06573
G1 X163.735 Y63.708 E0.06573
G1 X165.388 Y62.418 E0.06573
G1 X167.102 Y61.211 E0.06573
G1 X168.873 Y60.090 E0.06573
G1 X170.697 Y59.056 E0.06573
G1 X172.570 Y58.114 E0.06573
G1 X174.486 Y57.264 E0.06573
G1 X176.442 Y56.510 E0.06573
G1 X178.433 Y55.852 E0.06573
G1 X180.453 Y55.293 E0.06573
G1 X182.499 Y54.834 E0.06573
G1 X184.564 Y54.475 E0.06573
G1 X186.645 Y54.219 E0.06573
G1 X188.736 Y54.064 E0.06573
G1 X190.832 Y54.013 E0.06573
G1 X192.927 Y54.064 E0.06573
G1 X195.018 Y54.219 E0.06573
G1 X197.099 Y54.475 E0.06573
G1 X199.164 Y54.834 E0.06573
G1 X201.210 Y55.293 E0.06573
G1 X203.230 Y55.852 E0.06573
G1 X205.221 Y56.510 E0.06573
G1 X207.177 Y57.264 E0.06573
G1 X209.094 Y58.114 E0.06573
G1 X210.966 Y59.056 E0.06573
G1 X212.790 Y60.090 E0.06573
G1 X214.561 Y61.211 E0.06573
G1 X216.275 Y62.418 E0.06573
G1 X217.928 Y63.708 E0.06573
G1 X219.516 Y65.078 E0.06573
G1 X221.034 Y66.523 E0.06573
G1 X222.480 Y68.042 E0.06573
G1 X223.849 Y69.629 E0.06573
G1 X225.139 Y71.282 E0.06573
G1 X226.346 Y72.996 E0.06573
G1 X227.467 Y74.767 E0.06573
M73 P0 R129
G1 X228.501 Y76.591 E0.06573
G1 X229.443 Y78.464 E0.06573
G1 X230.293 Y80.380 E0.06573
G1 X231.047 Y82.336 E0.06573
G1 X231.705 Y84.327 E0.06573
G1 X232.264 Y86.347 E0.06573
G1 X232.724 Y88.393 E0.06573
G1 X233.082 Y90.458 E0.06573
G1 X233.339 Y92.539 E0.06573
G1 X233.493 Y94.630 E0.06573
G1 X233.544 Y96.726 E0.06573
G1 X233.493 Y98.821 E0.06573
G1 X233.339 Y100.912 E0.06573
G1 X233.082 Y102.993 E0.06573
G1 X232.724 Y105.058 E0.06573
G1 X232.264 Y107.104 E0.06573
G1 X231.705 Y109.124 E0.06573
G1 X231.047 Y111.115 E0.06573
G1 X230.293 Y113.071 E0.06573
G1 X229.443 Y114.988 E0.06573
G1 X228.501 Y116.860 E0.06573
G1 X227.467 Y118.684 E0.06573
G1 X226.346 Y120.455 E0.06573
G1 X225.139 Y122.169 E0.06573
G1 X223.849 Y123.822 E0.06573
G1 X222.480 Y125.410 E0.06573
G1 X221.034 Y126.928 E0.06573
G1 X219.516 Y128.374 E0.06573
G1 X217.928 Y129.743 E0.06573
G1 X216.275 Y131.033 E0.06573
G1 X214.561 Y132.240 E0.06573
G1 X212.790 Y133.361 E0.06573
G1 X210.966 Y134.395 E0.06573
G1 X209.094 Y135.337 E0.06573
G1 X207.177 Y136.187 E0.06573
G1 X205.221 Y136.941 E0.06573
G1 X203.230 Y137.599 E0.06573
G1 X201.210 Y138.158 E0.06573
G1 X199.164 Y138.618 E0.06573
G1 X197.099 Y138.976 E0.06573
G1 X195.018 Y139.233 E0.06573
G1 X192.927 Y139.387 E0.06573
G1 X190.832 Y139.438 E0.06573
G1 X188.736 Y139.387 E0.06573
G1 X186.645 Y139.233 E0.06573
G1 X184.564 Y138.976 E0.06573
G1 X182.499 Y138.618 E0.06573
G1 X180.453 Y138.158 E0.06573
G1 X178.433 Y137.599 E0.06573
G1 X176.442 Y136.941 E0.06573
G1 X174.486 Y136.187 E0.06573
G1 X172.570 Y135.337 E0.06573
G1 X170.697 Y134.395 E0.06573
G1 X168.873 Y133.361 E0.06573
G1 X167.102 Y132.240 E0.06573
G1 X165.388 Y131.033 E0.06573
G1 X163.735 Y129.743 E0.06573
G1 X162.147 Y128.374 E0.06573
G1 X160.629 Y126.928 E0.06573
G1 X159.183 Y125.410 E0.06573
G1 X157.814 Y123.822 E0.06573
G1 X156.524 Y122.169 E0.06573
G1 X155.317 Y120.455 E0.06573
G1 X154.196 Y118.684 E0.06573
G1 X153.162 Y116.860 E0.06573
G1 X152.220 Y114.988 E0.06573
G1 X151.370 Y113.071 E0.06573
G1 X150.616 Y111.115 E0.06573
G1 X149.958 Y109.124 E0.06573
G1 X149.399 Y107.104 E0.06573
G1 X148.940 Y105.058 E0.06573
G1 X148.581 Y102.993 E0.06573
G1 X148.325 Y100.912 E0.06573
G1 X148.170 Y98.821 E0.06573
G1 X148.119 Y96.726 E0.06573
G1 X148.170 Y94.630 E0.06573
G1 X148.325 Y92.539 E0.06573
G1 X148.581 Y90.458 E0.06573
G1 X148.940 Y88.393 E0.06573
G1 X149.399 Y86.347 E0.06573
G1 X149.942 Y84.385 E0.06385
G1 X149.579 Y84.284 F10800.000
;TYPE:External perimeter
G1 F1200.000
G1 X150.260 Y82.209 E0.06848
G1 X151.022 Y80.236 E0.06631
G1 X151.879 Y78.302 E0.06631
G1 X152.830 Y76.413 E0.06631
G1 X153.872 Y74.573 E0.06631
G1 X155.004 Y72.786 E0.06631
G1 X156.221 Y71.057 E0.06631
G1 X157.523 Y69.390 E0.06631
G1 X158.904 Y67.788 E0.06631
G1 X160.362 Y66.256 E0.06631
G1 X161.894 Y64.798 E0.06631
G1 X163.496 Y63.417 E0.06631
G1 X165.163 Y62.115 E0.06631
G1 X166.892 Y60.898 E0.06631
G1 X168.679 Y59.766 E0.06631
G1 X170.519 Y58.724 E0.06631
G1 X172.408 Y57.773 E0.06631
G1 X174.342 Y56.916 E0.06631
G1 X176.315 Y56.155 E0.06631
G1 X178.323 Y55.491 E0.06631
G1 X180.362 Y54.927 E0.06632
G1 X182.425 Y54.464 E0.06631
G1 X184.509 Y54.102 E0.06631
G1 X186.608 Y53.843 E0.06631
G1 X188.717 Y53.688 E0.06631
G1 X190.832 Y53.636 E0.06631
G1 X192.946 Y53.688 E0.06631
G1 X195.055 Y53.843 E0.06631
G1 X197.154 Y54.102 E0.06631
G1 X199.238 Y54.464 E0.06631
G1 X201.301 Y54.927 E0.06631
G1 X203.340 Y55.491 E0.06632
G1 X205.348 Y56.155 E0.06631
G1 X207.321 Y56.916 E0.06631
G1 X209.255 Y57.773 E0.06631
G1 X211.144 Y58.724 E0.06631
G1 X212.984 Y59.766 E0.06631
G1 X214.771 Y60.898 E0.06631
G1 X216.500 Y62.115 E0.06631
G1 X218.167 Y63.417 E0.06631
G1 X219.769 Y64.798 E0.06631
G1 X221.301 Y66.256 E0.06631
G1 X222.759 Y67.788 E0.06631
G1 X224.141 Y69.390 E0.06631
G1 X225.442 Y71.057 E0.06631
G1 X226.659 Y72.786 E0.06631
G1 X227.791 Y74.573 E0.06631
G1 X228.833 Y76.413 E0.06631
G1 X229.784 Y78.302 E0.06631
G1 X230.641 Y80.236 E0.06631
G1 X231.403 Y82.209 E0.06631
G1 X232.066 Y84.217 E0.06631
G1 X232.630 Y86.256 E0.06632
G1 X233.094 Y88.319 E0.06631
G1 X233.455 Y90.403 E0.06631
G1 X233.714 Y92.502 E0.06631
G1 X233.870 Y94.611 E0.06631
G1 X233.921 Y96.726 E0.06631
G1 X233.870 Y98.840 E0.06631
G1 X233.714 Y100.949 E0.06631
G1 X233.455 Y103.048 E0.06631
G1 X233.094 Y105.132 E0.06631
G1 X232.630 Y107.196 E0.06631
G1 X232.066 Y109.234 E0.06632
G1 X231.403 Y111.242 E0.06631
G1 X230.641 Y113.215 E0.06631
G1 X229.784 Y115.149 E0.06631
G1 X228.833 Y117.038 E0.06631
G1 X227.791 Y118.878 E0.06631
G1 X226.659 Y120.665 E0.06631
G1 X225.442 Y122.394 E0.06631
G1 X224.141 Y124.061 E0.06631
G1 X222.759 Y125.663 E0.06631
G1 X221.301 Y127.195 E0.06631
G1 X219.769 Y128.653 E0.06631
G1 X218.167 Y130.035 E0.06631
G1 X216.500 Y131.336 E0.06631
M73 Q0 S129
G1 X214.771 Y132.553 E0.06631
G1 X212.984 Y133.685 E0.06631
G1 X211.144 Y134.727 E0.06631
G1 X209.255 Y135.678 E0.06631
G1 X207.321 Y136.535 E0.06631
G1 X205.348 Y137.297 E0.06631
G1 X203.340 Y137.960 E0.06631
G1 X201.301 Y138.524 E0.06632
G1 X199.238 Y138.988 E0.06631
G1 X197.154 Y139.349 E0.06631
G1 X195.055 Y139.608 E0.06631
G1 X192.946 Y139.764 E0.06631
G1 X190.832 Y139.815 E0.06631
G1 X188.717 Y139.764 E0.06631
G1 X186.608 Y139.608 E0.06631
G1 X184.509 Y139.349 E0.06631
G1 X182.425 Y138.988 E0.06631
G1 X180.362 Y138.524 E0.06631
G1 X178.323 Y137.960 E0.06632
G1 X176.315 Y137.297 E0.06631
G1 X174.342 Y136.535 E0.06631
G1 X172.408 Y135.678 E0.06631
G1 X170.519 Y134.727 E0.06631
G1 X168.679 Y133.685 E0.06631
G1 X166.892 Y132.553 E0.06631
G1 X165.163 Y131.336 E0.06631
G1 X163.496 Y130.035 E0.06631
G1 X161.894 Y128.653 E0.06631
G1 X160.362 Y127.195 E0.06631
G1 X158.904 Y125.663 E0.06631
G1 X157.523 Y124.061 E0.06631
G1 X156.221 Y122.394 E0.06631
G1 X155.004 Y120.665 E0.06631
G1 X153.872 Y118.878 E0.06631
G1 X152.830 Y117.038 E0.06631
G1 X151.879 Y115.149 E0.06631
G1 X151.022 Y113.215 E0.06631
G1 X150.260 Y111.242 E0.06631
G1 X149.597 Y109.234 E0.06631
G1 X149.033 Y107.196 E0.06632
G1 X148.570 Y105.132 E0.06631
G1 X148.208 Y103.048 E0.06631
G1 X147.949 Y100.949 E0.06631
G1 X147.794 Y98.840 E0.06631
G1 X147.742 Y96.726 E0.06631
G1 X147.794 Y94.611 E0.06631
G1 X147.949 Y92.502 E0.06631
G1 X148.208 Y90.403 E0.06631
G1 X148.570 Y88.319 E0.06631
G1 X149.033 Y86.256 E0.06631
G1 X149.563 Y84.342 E0.06226
G1 X149.968 Y84.193 F10800.000
;WIPE_START
G1 F8640.000
G1 X150.260 Y82.209 E-0.51815
G1 X151.022 Y80.236 E-0.48834
G1 X151.589 Y78.955 E-0.32351
;WIPE_END
G1 E-0.07000 F2100.000
G1 Z0.400 F10800.000
G1 X223.448 Y69.338
G1 Z0.200
G1 E1.40000 F2100.000
;TYPE:Solid infill
;WIDTH:0.420073
G1 F1200.000
G1 X220.833 Y66.722 E0.11599
G1 X219.326 Y65.287 E0.06527
G1 X217.749 Y63.927 E0.06531
G1 X216.635 Y63.058 E0.04430
G1 X224.499 Y70.922 E0.34878
G1 X224.911 Y71.450 E0.02101
G1 X225.905 Y72.862 E0.05414
G1 X214.696 Y61.652 E0.49716
G1 X214.404 Y61.446 E0.01117
G1 X213.185 Y60.674 E0.04527
G1 X226.883 Y74.372 E0.60752
G1 X227.225 Y74.912 E0.02004
G1 X227.663 Y75.686 E0.02789
G1 X211.871 Y59.894 E0.70038
G1 X210.665 Y59.221 E0.04330
G1 X228.336 Y76.892 E0.78369
G1 X228.876 Y77.966 E0.03770
G1 X209.591 Y58.681 E0.85529
G1 X208.973 Y58.370 E0.02172
G1 X208.567 Y58.190 E0.01393
G1 X229.368 Y78.991 E0.92253
G1 X229.792 Y79.949 E0.03287
G1 X207.608 Y57.765 E0.98386
G1 X206.690 Y57.379 E0.03125
G1 X230.178 Y80.868 E1.04172
G1 X230.513 Y81.736 E0.02919
G1 X205.821 Y57.044 E1.09508
M73 P1 R129
M73 Q1 S129
G1 X204.967 Y56.724 E0.02861
G1 X230.833 Y82.590 E1.14718
G1 X231.097 Y83.386 E0.02631
G1 X204.171 Y56.461 E1.19417
G1 X203.374 Y56.197 E0.02631
G1 X231.360 Y84.183 E1.24117
G1 X231.581 Y84.937 E0.02465
G1 X202.620 Y55.977 E1.28441
G1 X201.882 Y55.772 E0.02400
G1 X231.785 Y85.675 E1.32617
G1 X231.989 Y86.412 E0.02400
G1 X201.145 Y55.568 E1.36793
G1 X200.457 Y55.414 E0.02212
G1 X232.143 Y87.100 E1.40531
G1 X232.298 Y87.788 E0.02211
G1 X199.769 Y55.259 E1.44266
G1 X199.083 Y55.106 E0.02204
G1 X232.451 Y88.474 E1.47987
G1 X232.563 Y89.119 E0.02054
G1 X198.438 Y54.994 E1.51345
G1 X197.792 Y54.883 E0.02054
G1 X232.675 Y89.765 E1.54704
M73 P1 R128
G1 X232.787 Y90.410 E0.02054
G1 X197.147 Y54.771 E1.58063
G1 X196.533 Y54.690 E0.01940
G1 X232.867 Y91.024 E1.61139
G1 X232.942 Y91.632 E0.01922
G1 X195.925 Y54.615 E1.64170
G1 X195.317 Y54.540 E0.01922
G1 X233.017 Y92.241 E1.67201
G1 X233.077 Y92.834 E0.01870
G1 X194.723 Y54.480 E1.70098
G1 X194.147 Y54.438 E0.01811
G1 X233.119 Y93.410 E1.72841
M73 Q1 S128
G1 X233.162 Y93.986 E0.01811
G1 X193.572 Y54.395 E1.75583
G1 X192.996 Y54.353 E0.01811
G1 X233.204 Y94.561 E1.78326
G1 X233.222 Y95.112 E0.01729
G1 X192.445 Y54.335 E1.80847
G1 X191.898 Y54.322 E0.01715
G1 X233.235 Y95.659 E1.83332
G1 X233.249 Y96.206 E0.01715
G1 X191.351 Y54.309 E1.85816
G1 X190.806 Y54.296 E0.01711
G1 X233.261 Y96.751 E1.88289
G1 X233.248 Y97.272 E0.01633
G1 X190.285 Y54.309 E1.90542
G1 X189.764 Y54.322 E0.01633
G1 X233.235 Y97.793 E1.92794
G1 X233.222 Y98.313 E0.01633
